X:214
T: ICH DANKE GOTT
N: F0363
O: Europa, Mitteleuropa, Deutschland
R: Jugend - Lied, religioes
M: 6/4
L: 1/4
K: F
C | F2Fc2c | d2dc2
c | f2cd2A | c3c3 | A3z2
A | G2GB2B | A2Ad2
d | c2FB2G | F2CG3 | F3-F2

@@@ Tune index: 5645
